assets/img/stars.svg

<svg width="149" height="28" viewBox="0 0 149 28" fill="none" xmlns="http://www.w3.org/2000/svg">
<path d="M13.5767 2.21993C13.9183 1.39864 15.0817 1.39864 15.4233 2.21993L17.9685 8.33923C18.1125 8.68547 18.4381 8.92204 18.8119 8.952L25.4182 9.48163C26.3048 9.55271 26.6644 10.6592 25.9888 11.2379L20.9555 15.5494C20.6707 15.7934 20.5464 16.1762 20.6334 16.5409L22.1711 22.9876C22.3775 23.8528 21.4363 24.5366 20.6772 24.073L15.0213 20.6184C14.7012 20.4229 14.2988 20.4229 13.9787 20.6184L8.32283 24.073C7.56373 24.5366 6.62248 23.8528 6.82887 22.9876L8.36662 16.5409C8.45363 16.1762 8.32926 15.7934 8.04447 15.5494L3.01117 11.2379C2.33563 10.6592 2.69515 9.55271 3.58181 9.48163L10.1881 8.952C10.5619 8.92204 10.8875 8.68547 11.0315 8.33923L13.5767 2.21993Z" fill="#FFE144"/>
<path d="M43.5767 2.21993C43.9183 1.39864 45.0817 1.39864 45.4233 2.21993L47.9685 8.33923C48.1125 8.68547 48.4381 8.92204 48.8119 8.952L55.4182 9.48163C56.3048 9.55271 56.6644 10.6592 55.9888 11.2379L50.9555 15.5494C50.6707 15.7934 50.5464 16.1762 50.6334 16.5409L52.1711 22.9876C52.3775 23.8528 51.4363 24.5366 50.6772 24.073L45.0213 20.6184C44.7012 20.4229 44.2988 20.4229 43.9787 20.6184L38.3228 24.073C37.5637 24.5366 36.6225 23.8528 36.8289 22.9876L38.3666 16.5409C38.4536 16.1762 38.3293 15.7934 38.0445 15.5494L33.0112 11.2379C32.3356 10.6592 32.6952 9.55271 33.5818 9.48163L40.1881 8.952C40.5619 8.92204 40.8875 8.68547 41.0315 8.33923L43.5767 2.21993Z" fill="#FFE144"/>
<path d="M73.5767 2.21993C73.9183 1.39864 75.0817 1.39864 75.4233 2.21993L77.9685 8.33923C78.1125 8.68547 78.4381 8.92204 78.8119 8.952L85.4182 9.48163C86.3048 9.55271 86.6644 10.6592 85.9888 11.2379L80.9555 15.5494C80.6707 15.7934 80.5464 16.1762 80.6334 16.5409L82.1711 22.9876C82.3775 23.8528 81.4363 24.5366 80.6772 24.073L75.0213 20.6184C74.7012 20.4229 74.2988 20.4229 73.9787 20.6184L68.3228 24.073C67.5637 24.5366 66.6225 23.8528 66.8289 22.9876L68.3666 16.5409C68.4536 16.1762 68.3293 15.7934 68.0445 15.5494L63.0112 11.2379C62.3356 10.6592 62.6952 9.55271 63.5818 9.48163L70.1881 8.952C70.5619 8.92204 70.8875 8.68547 71.0315 8.33923L73.5767 2.21993Z" fill="#FFE144"/>
<path d="M103.577 2.21993C103.918 1.39864 105.082 1.39864 105.423 2.21993L107.968 8.33923C108.112 8.68547 108.438 8.92204 108.812 8.952L115.418 9.48163C116.305 9.55271 116.664 10.6592 115.989 11.2379L110.956 15.5494C110.671 15.7934 110.546 16.1762 110.633 16.5409L112.171 22.9876C112.378 23.8528 111.436 24.5366 110.677 24.073L105.021 20.6184C104.701 20.4229 104.299 20.4229 103.979 20.6184L98.3228 24.073C97.5637 24.5366 96.6225 23.8528 96.8289 22.9876L98.3666 16.5409C98.4536 16.1762 98.3293 15.7934 98.0445 15.5494L93.0112 11.2379C92.3356 10.6592 92.6952 9.55271 93.5818 9.48163L100.188 8.952C100.562 8.92204 100.888 8.68547 101.032 8.33923L103.577 2.21993Z" fill="#FFE144"/>
<path d="M133.577 2.21993C133.918 1.39864 135.082 1.39864 135.423 2.21993L137.968 8.33923C138.112 8.68547 138.438 8.92204 138.812 8.952L145.418 9.48163C146.305 9.55271 146.664 10.6592 145.989 11.2379L140.956 15.5494C140.671 15.7934 140.546 16.1762 140.633 16.5409L142.171 22.9876C142.378 23.8528 141.436 24.5366 140.677 24.073L135.021 20.6184C134.701 20.4229 134.299 20.4229 133.979 20.6184L128.323 24.073C127.564 24.5366 126.622 23.8528 126.829 22.9876L128.367 16.5409C128.454 16.1762 128.329 15.7934 128.044 15.5494L123.011 11.2379C122.336 10.6592 122.695 9.55271 123.582 9.48163L130.188 8.952C130.562 8.92204 130.888 8.68547 131.032 8.33923L133.577 2.21993Z" fill="#FFE144"/>
</svg>

<svg xmlns="http://www.w3.org/2000/svg" width="149" height="28" fill="none" viewBox="0 0 149 28"><path fill="#ffe144" d="M13.577 2.22c.341-.821 1.505-.821 1.846 0l2.545 6.12a1 1 0 0 0 .844.612l6.606.53c.887.07 1.246 1.177.57 1.756l-5.032 4.311a1 1 0 0 0-.323.992l1.538 6.447c.207.865-.735 1.549-1.494 1.085l-5.656-3.455a1 1 0 0 0-1.042 0l-5.656 3.455c-.76.464-1.7-.22-1.494-1.085l1.538-6.447a1 1 0 0 0-.323-.992l-5.033-4.311c-.675-.579-.316-1.685.57-1.756l6.607-.53a1 1 0 0 0 .843-.613zM43.577 2.22c.341-.821 1.505-.821 1.846 0l2.545 6.12a1 1 0 0 0 .844.612l6.606.53c.887.07 1.246 1.177.57 1.756l-5.032 4.311a1 1 0 0 0-.323.992l1.538 6.447c.206.865-.735 1.549-1.494 1.085l-5.656-3.455a1 1 0 0 0-1.042 0l-5.656 3.455c-.76.464-1.7-.22-1.494-1.085l1.538-6.447a1 1 0 0 0-.322-.992l-5.034-4.311c-.675-.579-.316-1.685.57-1.756l6.607-.53a1 1 0 0 0 .843-.613zM73.577 2.22c.341-.821 1.505-.821 1.846 0l2.546 6.12a1 1 0 0 0 .843.612l6.606.53c.887.07 1.246 1.177.57 1.756l-5.032 4.311a1 1 0 0 0-.323.992l1.538 6.447c.206.865-.735 1.549-1.494 1.085l-5.656-3.455a1 1 0 0 0-1.042 0l-5.656 3.455c-.76.464-1.7-.22-1.494-1.085l1.538-6.447a1 1 0 0 0-.323-.992l-5.033-4.311c-.675-.579-.316-1.685.57-1.756l6.607-.53a1 1 0 0 0 .843-.613zM103.577 2.22c.341-.821 1.505-.821 1.846 0l2.545 6.12a1 1 0 0 0 .844.612l6.606.53c.887.07 1.246 1.177.571 1.756l-5.033 4.311a1 1 0 0 0-.323.992l1.538 6.447c.207.865-.735 1.549-1.494 1.085l-5.656-3.455a1 1 0 0 0-1.042 0l-5.656 3.455c-.76.464-1.7-.22-1.494-1.085l1.538-6.447a1 1 0 0 0-.323-.992l-5.033-4.311c-.675-.579-.316-1.685.57-1.756l6.607-.53a1 1 0 0 0 .844-.613zM133.577 2.22c.341-.821 1.505-.821 1.846 0l2.545 6.12a1 1 0 0 0 .844.612l6.606.53c.887.07 1.246 1.177.571 1.756l-5.033 4.311a1 1 0 0 0-.323.992l1.538 6.447c.207.865-.735 1.549-1.494 1.085l-5.656-3.455a1 1 0 0 0-1.042 0l-5.656 3.455c-.759.464-1.701-.22-1.494-1.085l1.538-6.447a1 1 0 0 0-.323-.992l-5.033-4.311c-.675-.579-.316-1.685.571-1.756l6.606-.53a1 1 0 0 0 .844-.613z"/></svg>
